src/resources/svg/Line.svg

<?xml version="1.0" encoding="UTF-8" standalone="no" ?>
<!DOCTYPE svg PUBLIC "-//W3C//DTD SVG 1.1//EN" "http://www.w3.org/Graphics/SVG/1.1/DTD/svg11.dtd">
<svg xmlns="http://www.w3.org/2000/svg" xmlns:xlink="http://www.w3.org/1999/xlink" version="1.1" width="200" height="40" viewBox="0 0 200 40" xml:space="preserve">
<desc>Created with Fabric.js 5.2.4</desc>
<defs>
</defs>
<g transform="matrix(1 0 0 1 100 20)" id="84a4857e-9590-4032-8776-129d7d45117a"  >
<rect style="stroke: none; stroke-width: 1; stroke-dasharray: none; stroke-linecap: butt; stroke-dashoffset: 0; stroke-linejoin: miter; stroke-miterlimit: 4; fill: rgb(255,255,255); fill-rule: nonzero; opacity: 1; visibility: hidden;" vector-effect="non-scaling-stroke"  x="-100" y="-20" rx="0" ry="0" width="200" height="40" />
</g>
<g transform="matrix(0 0 0 0 0 0)" id="22f1a186-76a4-44ed-950b-a27bf3e6b603"  >
</g>
<g transform="matrix(0.36 0 0 0.36 100 20)"  >
<path style="stroke: rgb(214,44,88); stroke-width: 0; stroke-dasharray: none; stroke-linecap: butt; stroke-dashoffset: 0; stroke-linejoin: miter; stroke-miterlimit: 4; fill: rgb(214,44,88); fill-rule: nonzero; opacity: 1;" vector-effect="non-scaling-stroke"  transform=" translate(-267.18, -266.86)" d="M 65.55 244.519 C 75.07 251.945 84.127 259.075 93.35499999999999 265.973 C 98.18399999999998 269.582 107.89899999999999 271.043 113.57499999999999 269.558 C 114.54199999999999 269.305 115.58999999999999 269.24 116.59499999999998 269.274 C 128.59699999999998 269.677 139.26399999999998 265.223 149.69699999999997 260.072 C 160.60499999999996 254.687 171.30799999999996 256.224 182.06199999999998 260.49 C 190.88799999999998 263.991 200.21999999999997 265.008 209.55499999999998 266.253 C 214.80899999999997 266.954 219.903 268.961 225.028 270.51599999999996 C 232.501 272.78399999999993 239.084 277.21399999999994 246.231 279.96999999999997 C 256.318 283.861 266.815 288.02099999999996 278.061 286.455 C 289.942 284.8 301.55499999999995 281.632 312.32399999999996 276.351 C 321.282 271.957 329.51399999999995 266.09 338.44699999999995 261.637 C 343.37699999999995 259.179 349.07899999999995 258.25600000000003 354.44999999999993 256.698 C 364.5589999999999 253.766 372.72099999999995 258.332 381.1689999999999 263.03299999999996 C 386.38499999999993 265.93499999999995 392.35599999999994 267.92499999999995 398.2319999999999 269.09399999999994 C 406.8299999999999 270.80499999999995 415.5189999999999 271.98799999999994 424.3549999999999 272.73099999999994 C 445.6059999999999 274.51699999999994 466.0499999999999 271.2319999999999 485.6589999999999 264.17599999999993 C 495.78499999999985 260.5319999999999 505.86899999999986 257.22599999999994 516.2879999999999 254.74599999999992 C 516.8699999999999 254.60799999999992 517.4019999999999 254.25799999999992 517.9579999999999 254.00599999999991 C 517.8069999999999 254.89999999999992 517.9559999999999 256.2919999999999 517.4519999999999 256.5949999999999 C 515.8109999999999 257.5809999999999 513.9589999999998 258.2439999999999 512.1399999999999 258.8959999999999 C 499.1439999999999 263.5459999999999 486.22499999999985 268.4329999999999 473.1049999999999 272.7029999999999 C 462.7219999999999 276.08199999999994 452.1719999999999 279.04799999999994 441.0209999999999 278.71399999999994 C 434.7439999999999 278.52699999999993 428.4439999999999 278.42199999999997 422.1779999999999 278.73799999999994 C 411.47199999999987 279.2799999999999 401.4539999999999 276.1669999999999 391.3609999999999 273.4359999999999 C 384.2959999999999 271.5249999999999 377.94099999999986 267.9719999999999 371.3559999999999 264.8329999999999 C 361.6949999999999 260.2279999999999 351.31399999999985 261.1369999999999 341.7999999999999 266.1889999999999 C 332.7559999999999 270.99099999999993 324.2929999999999 276.9369999999999 315.0879999999999 281.3719999999999 C 307.7159999999999 284.9239999999999 299.69499999999994 287.2289999999999 291.8109999999999 289.5809999999999 C 286.63499999999993 291.1259999999999 281.22099999999995 292.3509999999999 275.8549999999999 292.6469999999999 C 270.8799999999999 292.9199999999999 265.6849999999999 292.3309999999999 260.8459999999999 291.1009999999999 C 255.0139999999999 289.6179999999999 249.42699999999988 287.1319999999999 243.7859999999999 284.9469999999999 C 233.63599999999988 281.0159999999999 223.53999999999988 276.9489999999999 213.3809999999999 273.0429999999999 C 212.0179999999999 272.5189999999999 210.4289999999999 272.5229999999999 208.93399999999988 272.4099999999999 C 198.7879999999999 271.6459999999999 188.88999999999987 270.1379999999999 179.4359999999999 265.87799999999993 C 170.7339999999999 261.95699999999994 161.9589999999999 261.7319999999999 152.8099999999999 265.9459999999999 C 144.2679999999999 269.87999999999994 135.2629999999999 273.4849999999999 126.08699999999989 275.0849999999999 C 121.4269999999999 275.8979999999999 116.28899999999989 277.9459999999999 110.81799999999988 275.94699999999995 C 105.95899999999989 274.17199999999997 100.31299999999989 276.28299999999996 95.08999999999989 274.07699999999994 C 90.1979999999999 272.01099999999997 85.9389999999999 269.2989999999999 82.02799999999989 265.76699999999994 C 74.98599999999989 259.4069999999999 67.67599999999989 253.36899999999994 59.11399999999989 249.07999999999993 C 51.12999999999989 245.08199999999994 36.81599999999989 246.96199999999993 29.867999999999892 252.62599999999992 C 27.219999999999892 254.7839999999999 24.252999999999894 256.6979999999999 21.14099999999989 258.0609999999999 C 19.992999999999892 258.5639999999999 18.00999999999989 257.1629999999999 16.40699999999989 256.6309999999999 C 17.06999999999989 255.07999999999993 17.29699999999989 252.78799999999993 18.46699999999989 252.10399999999993 C 24.750999999999888 248.42599999999993 30.95899999999989 244.11499999999992 37.80499999999989 242.05599999999993 C 43.46099999999989 240.35399999999993 49.98299999999989 241.15899999999993 56.087999999999894 241.47999999999993 C 59.148999999999894 241.64099999999993 62.13799999999989 243.19999999999993 65.55099999999989 244.51899999999992 Z" stroke-linecap="round" />
</g>
<g transform="matrix(NaN NaN NaN NaN 0 0)"  >
<g style=""   >
</g>
</g>
<g transform="matrix(NaN NaN NaN NaN 0 0)"  >
<g style=""   >
</g>
</g>
</svg>

<svg width="534" height="534" viewBox="0 0 534 534" fill="none" xmlns="http://www.w3.org/2000/svg"><path d="M65.55 244.519c9.52 7.426 18.577 14.556 27.805 21.454 4.829 3.609 14.544 5.07 20.22 3.585.967-.253 2.015-.318 3.02-.284 12.002.403 22.669-4.051 33.102-9.202 10.908-5.385 21.611-3.848 32.365.418 8.826 3.501 18.158 4.518 27.493 5.763 5.254.701 10.348 2.708 15.473 4.263 7.473 2.268 14.056 6.698 21.203 9.454 10.087 3.891 20.584 8.051 31.83 6.485 11.881-1.655 23.494-4.823 34.263-10.104 8.958-4.394 17.19-10.261 26.123-14.714 4.93-2.458 10.632-3.381 16.003-4.939 10.109-2.932 18.271 1.634 26.719 6.335 5.216 2.902 11.187 4.892 17.063 6.061 8.598 1.711 17.287 2.894 26.123 3.637 21.251 1.786 41.695-1.499 61.304-8.555 10.126-3.644 20.21-6.95 30.629-9.43.582-.138 1.114-.488 1.67-.74-.151.894-.002 2.286-.506 2.589-1.641.986-3.493 1.649-5.312 2.301-12.996 4.65-25.915 9.537-39.035 13.807-10.383 3.379-20.933 6.345-32.084 6.011-6.277-.187-12.577-.292-18.843.024-10.706.542-20.724-2.571-30.817-5.302-7.065-1.911-13.42-5.464-20.005-8.603-9.661-4.605-20.042-3.696-29.556 1.356-9.044 4.802-17.507 10.748-26.712 15.183-7.372 3.552-15.393 5.857-23.277 8.209-5.176 1.545-10.59 2.77-15.956 3.066-4.975.273-10.17-.316-15.009-1.546-5.832-1.483-11.419-3.969-17.06-6.154-10.15-3.931-20.246-7.998-30.405-11.904-1.363-.524-2.952-.52-4.447-.633-10.146-.764-20.044-2.272-29.498-6.532-8.702-3.921-17.477-4.146-26.626.068-8.542 3.934-17.547 7.539-26.723 9.139-4.66.813-9.798 2.861-15.269.862-4.859-1.775-10.505.336-15.728-1.87-4.892-2.066-9.151-4.778-13.062-8.31-7.042-6.36-14.352-12.398-22.914-16.687-7.984-3.998-22.298-2.118-29.246 3.546-2.648 2.158-5.615 4.072-8.727 5.435-1.148.503-3.131-.898-4.734-1.43.663-1.551.89-3.843 2.06-4.527 6.284-3.678 12.492-7.989 19.338-10.048 5.656-1.702 12.178-.897 18.283-.576 3.061.161 6.05 1.72 9.463 3.039Z" fill="#000"/></svg>
